X:1
T:Invitation (Root), 99.96 D
T:Invitation (Root), 99.96 D
T:George Frederick Root, 1870
T:Public Domain Courtesy of the Cyber Hymnal™
C:George Frederick Root, 1870
Z:Public Domain
Z:Courtesy of the Cyber Hymnal™
%%score 1 ( 2 3 )
L:1/8
Q:1/4=105
M:4/4
K:Bb
V:1 treble 
V:2 bass 
V:3 bass 
V:1
 [DF]2 [EG]>[DF] [B,D]2 [DF]2 | [FB]2 [Fc]>[FB] [EG]4 | [CA]2 [CA]>[DB] [Ec]2 [Fd]2 | %3
 [DB]2 [EA]>[EG] [DF]4 | [DF]2 [EG]>[DF] [B,D]2 [DF]2 | [FB]2 [Fc]>[FB] [EG]4 | %6
 [CA]2 [CA]>[DB] [Ec]2 [Fd]2 | [DB]8 | [Fd]2 [Fd]2 [Ge]3 [Fd] | [Ed][Ec][Ec][EG] [Ec]4 | %10
 [Ec]2 [Ec]2 [Fd]3 [Ec] | [Dc][DB][DB][EG] [DF]4 | [DF]2 [EG]>[DF] [B,D]2 [DF]2 | %13
 [FB]2 [Fc]>[FB] [EG]4 | [CA]2 [CA]>[DB] [Ec]2 [Fd]2 | [DB]8 |] %16
V:2
 [B,,B,]2 [B,,B,]>[B,,B,] [B,,F,]2 [B,,B,]2 | [D,B,]2 [D,B,]>[D,B,] [E,B,]4 | %2
 F,2 F,>F, [F,A,]2 [F,A,]2 | [B,,B,]2 [B,,B,]>[B,,B,] [B,,B,]4 | %4
 [B,,B,]2 [B,,B,]>[B,,B,] [B,,F,]2 [B,,B,]2 | [D,B,]2 [D,B,]>[D,B,] [E,B,]4 | %6
 F,2 F,>F, [F,A,]2 [F,A,]2 | [B,,B,]8 | [B,,B,]2 [B,,B,]2 [B,,B,]3 [B,,B,] | %9
 [E,G,][E,G,][E,G,][E,G,] [E,G,]4 | [F,A,]2 [F,A,]2 [F,A,]3 [F,A,] | %11
 [B,,B,][B,,B,][B,,B,][B,,B,] [B,,B,]4 | [B,,B,]2 [B,,B,]>[B,,B,] [B,,F,]2 [B,,B,]2 | %13
 [D,B,]2 [D,B,]>[D,B,] [E,B,]4 | F,2 F,>F, [F,A,]2 [F,A,]2 | [B,,B,]8 |] %16
V:3
 x8 | x8 | F,2 F,>F, x4 | x8 | x8 | x8 | x8 | x8 | x8 | x8 | x8 | x8 | x8 | x8 | x8 | x8 |] %16

